X: 81
T: Missa Inviolata / Sanctus
N: Derived from Rue1017d-Missa_Inviolata-Sanctus.krn
C: Pierre de la Rue
%%abc-version 2.0
%%abcx-abcm2ps-target-version 5.9.1 (29 Sep 2008)
%%abc-creator hum2abc beta
%%abcx-conversion-date 2019/02/17 08:01:13
%%abc-edited-by Jesse Rodin
%%abc-edited-by Chris Gage 05-14-2013
%%abcx-initial-encoding-date 2013/07/25/
%%humdrum-veritas 1762735962
%%humdrum-veritas-data 1886998328
%%linebreak <none>
%%barnumbers 0
L: 1/4
M: 4/2
Q: 1/2=120
%%staves [1 2 3 4]
V: 1 clef=treble
V: 2 clef=treble
V: 3 clef=treble-8
V: 4 clef=bass
K: C
[V:1] z8 | 
[V:2] C3DE2A,2 | 
[V:3] z8 | 
[V:4] z4C4- | 
[V:1] z8 | 
[V:2] E2F2G2AG | 
[V:3] z8 | 
[V:4] C2D2E4 | 
[V:1] c6d2 | 
[V:2] A6GF | 
[V:3] c8- | 
[V:4] A,6B,2 | 
[V:1] e4A4- | 
[V:2] E4F4- | 
[V:3] c8 | 
[V:4] C4F,4- | 
[V:1] A2B2c4 | 
[V:2] F2E6 | 
[V:3] c4c4 | 
[V:4] F,2G,2A,4 | 
[V:1] F3GA2D2 | 
[V:2] D2F3GA2 | 
[V:3] d8- | 
[V:4] D,8 | 
[V:1] A2B3cd2 | 
[V:2] D2G4F2 | 
[V:3] d8 | 
[V:4] z8 | 
[V:1] G4z2c2- | 
[V:2] G6E2 | 
[V:3] e8 | 
[V:4] C3DE2A,2- | 
[V:1] cde2A2f2- | 
[V:2] F2E2A4- | 
[V:3] z4f4- | 
[V:4] A,B,C2F,3G, | 
[V:1] f2f4ed | 
[V:2] A8- | 
[V:3] f4f4 | 
[V:4] A,2D,3E,F,G, | 
[V:1] c4z2c2 | 
[V:2] A4z2A2 | 
[V:3] e3de4 | 
[V:4] A,4z2A,2 | 
[V:1] d3cA2B2- | 
[V:2] G2F3DG2- | 
[V:3] d8 | 
[V:4] B,3CD2G,2- | 
[V:1] Bcd2G3A | 
[V:2] G2F2G4- | 
[V:3] d4e4 | 
[V:4] G,A,B,2E,3F, | 
[V:1] B2c3BGA | 
[V:2] G8 | 
[V:3] d2c2e4 | 
[V:4] G,2C,3D,E,F, | 
[V:1] B2c4B2- | 
[V:2] z2C3DEF | 
[V:3] d2c2e4 | 
[V:4] G,2A,4G,2- | 
[V:1] B2AGA2G2 | 
[V:2] G4F2G2- | 
[V:3] d2c2d4 | 
[V:4] G,2F,E,D,2G,2 | 
[V:1] E2c3dec | 
[V:2] G2FEF2G2 | 
[V:3] e4z4 | 
[V:4] C,4z4 | 
[V:1] f2e4d2 | 
[V:2] AGFEF2G2 | 
[V:3] z8 | 
[V:4] z8 | 
[V:1] e2g3fed | 
[V:2] C3DEFG2- | 
[V:3] e8 | 
[V:4] z2C4B,2 | 
[V:1] e2dcB4- | 
[V:2] G2F2G4- | 
[V:3] c4d3c/d/ | 
[V:4] A,4G,4- | 
[V:1] B4z4 | 
[V:2] G2E3FG2- | 
[V:3] e2g3fed | 
[V:4] G,4z2C,2- | 
[V:1] z4z2B2 | 
[V:2] G2FED4 | 
[V:3] e2dcB4 | 
[V:4] C,D,E,F,G,4 | 
[V:1] c2e3dcB | 
[V:2] C4z2C2- | 
[V:3] z8 | 
[V:4] A,2C3B,A,G, | 
[V:1] c2BAG2e2- | 
[V:2] CDEFG2E2- | 
[V:3] z2d2e2g2- | 
[V:4] A,2G,F,E,4- | 
[V:1] edB2c2BA | 
[V:2] EFG4FE | 
[V:3] gfede2dc | 
[V:4] E,4z4 | 
[V:1] G4z4 | 
[V:2] D4C2E2- | 
[V:3] B4z4 | 
[V:4] z2G,2A,2C2- | 
[V:1] z4z2A2 | 
[V:2] EDCB,C2B,A, | 
[V:3] z4z2d2 | 
[V:4] CB,A,G,A,2G,F, | 
[V:1] GABcd2c2- | 
[V:2] B,2G,2G4 | 
[V:3] e2dcB2c2 | 
[V:4] E,4z4 | 
[V:1] c2B2c2e2- | 
[V:2] z2G2E2G2- | 
[V:3] d4c4 | 
[V:4] z2G,2A,2G,F, | 
[V:1] e2dcB2g2 | 
[V:2] G2FED4 | 
[V:3] z4z2d2 | 
[V:4] E,2F,2G,4 | 
[V:1] f2e4dc | 
[V:2] C4z4 | 
[V:3] e2g4fe | 
[V:4] C,4C2C2- | 
[V:1] f4edcB | 
[V:2] z8 | 
[V:3] d4c2g2- | 
[V:4] C2B,2CB,A,G, | 
[V:1] c4B4 | 
[V:2] C4D2B,2 | 
[V:3] g2f2gfed | 
[V:4] A,4G,4 | 
[V:1] z2e2f2d2 | 
[V:2] C2E2D4 | 
[V:3] e2c2d4 | 
[V:4] z2C4B,2 | 
[V:1] e4c3d | 
[V:2] C4C3B,/C/ | 
[V:3] z2g3ff2 | 
[V:4] CB,A,G,A,3B, | 
[V:1] B2c4BA | 
[V:2] D2C2A,4 | 
[V:3] gfede2f2 | 
[V:4] G,2A,4G,F, | 
[V:1] B2G2A2c2- | 
[V:2] z2B,2CDEF | 
[V:3] d2e4dc | 
[V:4] G,2E,2A,4 | 
[V:1] cBd4c2- | 
[V:2] G2D2G2G,2 | 
[V:3] d2B2e4 | 
[V:4] G,8- | 
[V:1] c2BAB3A | 
[V:2] G3FGFED | 
[V:3] d8 | 
[V:4] G,8 | 
[V:1] c8 ||  
[V:2] E8 ||  
[V:3] c8 ||  
[V:4] C,8 ||  
[V:1]  [K:C] [K:clef=treble][M:4/2]z8 | 
[V:2]  [K:C] [K:clef=treble][M:4/2]z8 | 
[V:3]  [K:C] [K:clef=treble-8][M:4/2]c8 | 
[V:4]  [K:C] [K:clef=bass][M:4/2]z4C3B, | 
[V:1] z8 | 
[V:2] z8 | 
[V:3] c4e4 | 
[V:4] A,2G,F,E,4 | 
[V:1] z8 | 
[V:2] z8 | 
[V:3] f3ed2cB | 
[V:4] D,8 | 
[V:1] z8 | 
[V:2] z8 | 
[V:3] A4G4- | 
[V:4] z2D,2E,2G,2- | 
[V:1] z8 | 
[V:2] z8 | 
[V:3] G4z2G2 | 
[V:4] G,A,B,CD2B,2 | 
[V:1] z8 | 
[V:2] z8 | 
[V:3] A2c3def | 
[V:4] CB,A,G,A,4 | 
[V:1] z8 | 
[V:2] z8 | 
[V:3] g2e2fedc | 
[V:4] G,2A,3G,C2- | 
[V:1] z8 | 
[V:2] z8 | 
[V:3] d4c4 | 
[V:4] C2B,2C4- | 
[V:1] z8 | 
[V:2] z8 | 
[V:3] z2e2e4 | 
[V:4] C4z2C2 | 
[V:1] z8 | 
[V:2] z8 | 
[V:3] f4e4 | 
[V:4] D2B,2C2B,A, | 
[V:1] z8 | 
[V:2] z8 | 
[V:3] z2e2f2d2 | 
[V:4] G,2C2D2B,2 | 
[V:1] z8 | 
[V:2] z8 | 
[V:3] e2dcB2e2 | 
[V:4] C2B,A,G,A,B,C | 
[V:1] z8 | 
[V:2] z8 | 
[V:3] f2d2e2dc | 
[V:4] D2B,2C2A,2- | 
[V:1] z8 | 
[V:2] z8 | 
[V:3] BAB2A3B | 
[V:4] A,2G,2F,2A,2- | 
[V:1] z8 | 
[V:2] z8 | 
[V:3] cdefe2d2- | 
[V:4] A,2G,F,G,F,E,D, | 
[V:1] z8 | 
[V:2] z8 | 
[V:3] d2^c2d4- | 
[V:4] E,4z2D,2 | 
[V:1] z8 | 
[V:2] z8 | 
[V:3] d4z2g2- | 
[V:4] G,4F,2E,2- | 
[V:1] z8 | 
[V:2] z8 | 
[V:3] g2f2e3c | 
[V:4] E,C,D,2E,2F,2- | 
[V:1] z8 | 
[V:2] z8 | 
[V:3] d2e2c2f2- | 
[V:4] F,2E,3C,D,2 | 
[V:1] z8 | 
[V:2] z8 | 
[V:3] f2e3cd2 | 
[V:4] E,4F,4 | 
[V:1] z8 | 
[V:2] z8 | 
[V:3] e2c4f2- | 
[V:4] E,4A,4 | 
[V:1] z8 | 
[V:2] z8 | 
[V:3] fed3cBA | 
[V:4] F,2_B,3A,G,F, | 
[V:1] z8 | 
[V:2] z8 | 
[V:3] G2g4e2 | 
[V:4] G,F,E,D,C,2C2- | 
[V:1] z8 | 
[V:2] z8 | 
[V:3] c2f2d2e2- | 
[V:4] C2A,2F,2G,2 | 
[V:1] z8 | 
[V:2] z8 | 
[V:3] e2dcBcde | 
[V:4] A,4G,4- | 
[V:1] z8 | 
[V:2] z8 | 
[V:3] d2G2z2B2- | 
[V:4] G,4E,F,G,A, | 
[V:1] z8 | 
[V:2] z8 | 
[V:3] Bcded2G2 | 
[V:4] G,3C,G,4 | 
[V:1] z8 | 
[V:2] z8 | 
[V:3] cdefe2dc | 
[V:4] E,F,G,A,G,2C,2 | 
[V:1] z8 | 
[V:2] z8 | 
[V:3] BABcdGc2- | 
[V:4] E,F,G,A,G,2F,E, | 
[V:1] z8 ||  
[V:2] z8 ||  
[V:3] c2B2c4 ||  
[V:4] D,4C,4 ||  
[V:1]  [K:C] [K:clef=treble][M:4/2]c8 | 
[V:2]  [K:C] [K:clef=treble][M:4/2]G8 | 
[V:3]  [K:C] [K:clef=treble-8][M:4/2]c8 | 
[V:4]  [K:C] [K:clef=bass][M:4/2]z4C3B, | 
[V:1] c4d4 | 
[V:2] A6GF | 
[V:3] e4f4 | 
[V:4] A,2G,2F,2E,D, | 
[V:1] e4c2d2 | 
[V:2] G4A2B2 | 
[V:3] e6f2- | 
[V:4] C,2C4B,2 | 
[V:1] e4f4 | 
[V:2] c3BA2GF | 
[V:3] f2e4d2 | 
[V:4] A,2G,2F,2E,D, | 
[V:1] e4z2d2 | 
[V:2] G2c4B2 | 
[V:3] e2g4f2 | 
[V:4] C,4G,4 | 
[V:1] e2g3ef2 | 
[V:2] c4z2F2 | 
[V:3] e2c2e2d2 | 
[V:4] z2C,4D,2 | 
[V:1] e2dcB4 | 
[V:2] G2A4G2- | 
[V:3] c3de2d2- | 
[V:4] E,2F,2G,4 | 
[V:1] A4z2d2- | 
[V:2] G2FEF4 | 
[V:3] d2cBA4 | 
[V:4] D,8 | 
[V:1] d2B3cd2 | 
[V:2] G4z2G2 | 
[V:3] G4z2d2 | 
[V:4] z4G,4 | 
[V:1] G4G4 | 
[V:2] GABA/B/c2B2- | 
[V:3] e2g3fed | 
[V:4] G,2E,3F,G,F,/G,/ | 
[V:1] z8 | 
[V:2] B2A4^G2 | 
[V:3] c4d4 | 
[V:4] A,2C2B,4 | 
[V:1] z4c4- | 
[V:2] A8 | 
[V:3] e4c2d2 | 
[V:4] A,8- | 
[V:1] c2BAA4- | 
[V:2] z8 | 
[V:3] e4f4- | 
[V:4] A,4F,4- | 
[V:1] A2B2c2F2 | 
[V:2] z8 | 
[V:3] f2edc2d2 | 
[V:4] F,2G,2A,2B,2 | 
[V:1] c6dc | 
[V:2] A4A3G | 
[V:3] e2f2e4 | 
[V:4] A,8 | 
[V:1] d6B2 | 
[V:2] G2F2G4 | 
[V:3] d4z2d2- | 
[V:4] B,4G,4 | 
[V:1] B4z2g2- | 
[V:2] D4z2E2- | 
[V:3] d2B4G2- | 
[V:4] z2G,4E,2- | 
[V:1] g2e4c2 | 
[V:2] ECEFG4 | 
[V:3] G2g3fe2 | 
[V:4] E,2C,3D,E,F, | 
[V:1] B3cd4 | 
[V:2] G3AB2B2- | 
[V:3] d3GG2d2- | 
[V:4] G,8- | 
[V:1] G4z2d2- | 
[V:2] B2AGG2B2- | 
[V:3] dcd2e2d2 | 
[V:4] G,8 | 
[V:1] dcd2e2d2 | 
[V:2] BAB2c2B2 | 
[V:3] B4z2d2 | 
[V:4] z4G,4- | 
[V:1] B4z4 | 
[V:2] G8 | 
[V:3] e2d3cc2- | 
[V:4] G,4E,2C,2 | 
[V:1] z2d2e2c2- | 
[V:2] G4z2G2- | 
[V:3] c2B2c4- | 
[V:4] G,4C,4- | 
[V:1] cdefg2e2 | 
[V:2] GFEDE4 | 
[V:3] c4z4 | 
[V:4] C,4z2C2 | 
[V:1] f2edc2d2- | 
[V:2] D3EF2D2 | 
[V:3] z4z2d2- | 
[V:4] D2CB,A,2B,2 | 
[V:1] d2B2c2d2 | 
[V:2] z2G2A2B2 | 
[V:3] d2e4d2 | 
[V:4] G,4z2G,2 | 
[V:1] e2c2d2e2 | 
[V:2] c3BG4 | 
[V:3] c2e2d2c2 | 
[V:4] C2A,2B,2C2 | 
[V:1] f4e2e2- | 
[V:2] F4z2c2 | 
[V:3] a4g2e2 | 
[V:4] D2D,2E,2C,2 | 
[V:1] e2d2e3d | 
[V:2] B2A2c2BA | 
[V:3] f4e4 | 
[V:4] D,4z4 | 
[V:1] B2d4c2- | 
[V:2] G2B3AG2- | 
[V:3] z8 | 
[V:4] z2G,3F,E,2 | 
[V:1] c2f2e2c2- | 
[V:2] G2F2G2E2- | 
[V:3] z4g4- | 
[V:4] D,4C,4- | 
[V:1] c2e3fge | 
[V:2] E2DCB,2C2 | 
[V:3] g4g4 | 
[V:4] C,4E,4 | 
[V:1] f2d2e2e2- | 
[V:2] D2F2E2C2 | 
[V:3] f2a2g2e2- | 
[V:4] D,4z2C,2- | 
[V:1] e2dcBAd2- | 
[V:2] G3ABcB2- | 
[V:3] efg2d2g2 | 
[V:4] C,D,E,F,G,3A, | 
[V:1] d2c3BB2 | 
[V:2] BAGFG4 | 
[V:3] fedcd4 | 
[V:4] B,2C2G,4 | 
[V:1] c8 ||  
[V:2] G8 ||  
[V:3] c8 ||  
[V:4] C,8 ||  
[V:1]  [K:C] [K:clef=treble][M:4/2]z8 | 
[V:2]  [K:C] [K:clef=treble][M:4/2]C4C2E2- | 
[V:3]  [K:C] [K:clef=treble-8][M:4/2]z8 | 
[V:4]  [K:C] [K:clef=bass][M:4/2]z8 | 
[V:1] z8 | 
[V:2] E2DCG4- | 
[V:3] z8 | 
[V:4] G,4G,2B,2- | 
[V:1] z8 | 
[V:2] G2FEFEDC | 
[V:3] z8 | 
[V:4] B,2A,G,D2C2- | 
[V:1] z8 | 
[V:2] D4z2C2- | 
[V:3] z8 | 
[V:4] C2B,2C4 | 
[V:1] z8 | 
[V:2] CDECD2C2 | 
[V:3] z8 | 
[V:4] z2C2B,2C2- | 
[V:1] z8 | 
[V:2] E2F2G4- | 
[V:3] z8 | 
[V:4] C2B,A,G,2C,2- | 
[V:1] z8 | 
[V:2] G2E2F2E2- | 
[V:3] z8 | 
[V:4] C,D,E,C,D,2C,2 | 
[V:1] z8 | 
[V:2] E2DCB,4- | 
[V:3] z8 | 
[V:4] E,2F,2G,2E,2 | 
[V:1] z8 | 
[V:2] B,4z2C2- | 
[V:3] z8 | 
[V:4] D,4C,4 | 
[V:1] z8 | 
[V:2] CDECD2C2 | 
[V:3] z8 | 
[V:4] z2C2B,2C2- | 
[V:1] z4z2G2- | 
[V:2] E2F2G4 | 
[V:3] z8 | 
[V:4] C2B,A,G,4- | 
[V:1] GABGA2G2 | 
[V:2] z2G2F2G2- | 
[V:3] z8 | 
[V:4] G,4z4 | 
[V:1] B2c2d4 | 
[V:2] G2FED2F2 | 
[V:3] z8 | 
[V:4] z8 | 
[V:1] z2c3dec | 
[V:2] G2A3BcA | 
[V:3] z8 | 
[V:4] z8 | 
[V:1] d2c2e2f2 | 
[V:2] B2A4GF | 
[V:3] z8 | 
[V:4] z8 | 
[V:1] g3fd2e2- | 
[V:2] E4F2G2 | 
[V:3] z8 | 
[V:4] z4z2C,2- | 
[V:1] efgef2e2- | 
[V:2] E4z2G2- | 
[V:3] z8 | 
[V:4] C,D,E,C,D,2C,2 | 
[V:1] edc4B2 | 
[V:2] G2FED4 | 
[V:3] z8 | 
[V:4] E,2F,2G,4 | 
[V:1] c4z4 | 
[V:2] C4G4 | 
[V:3] z8 | 
[V:4] C,4z2C2- | 
[V:1] z8 | 
[V:2] E2F2G2A2- | 
[V:3] z8 | 
[V:4] C2A,2B,2C2 | 
[V:1] z2d4B2 | 
[V:2] A2D4G2 | 
[V:3] z8 | 
[V:4] DCB,A,G,4 | 
[V:1] c2d2edcB | 
[V:2] E2F2G2A2 | 
[V:3] z8 | 
[V:4] z8 | 
[V:1] A4z4 | 
[V:2] A2D3EFE | 
[V:3] z8 | 
[V:4] z2F,4D,2 | 
[V:1] z2f4d2 | 
[V:2] DCC4B,2 | 
[V:3] z8 | 
[V:4] E,2F,2G,4 | 
[V:1] e2f2g4 | 
[V:2] C4z2G2 | 
[V:3] z8 | 
[V:4] C,8 | 
[V:1] c4z2f2 | 
[V:2] A2c2B2A2- | 
[V:3] z8 | 
[V:4] z8 | 
[V:1] e2d3cA2 | 
[V:2] AGFED2F2 | 
[V:3] z8 | 
[V:4] z8 | 
[V:1] B2G4^F2 | 
[V:2] G2B2A4 | 
[V:3] z8 | 
[V:4] z8 | 
[V:1] G2A2c3B | 
[V:2] G2c2ABcB/c/ | 
[V:3] z8 | 
[V:4] z2C4A,2 | 
[V:1] AGG4^F2 | 
[V:2] d2B2A4 | 
[V:3] z8 | 
[V:4] B,2C2D4 | 
[V:1] G4z4 | 
[V:2] z2G3FED | 
[V:3] z8 | 
[V:4] G,2C3B,B,2 | 
[V:1] z4z2c2- | 
[V:2] ECG4^F2 | 
[V:3] z8 | 
[V:4] CB,A,G,A,4 | 
[V:1] c2B2e4 | 
[V:2] G8- | 
[V:3] z8 | 
[V:4] G,4z2C2- | 
[V:1] d4z2G2- | 
[V:2] G8 | 
[V:3] z8 | 
[V:4] C2B,2C4 | 
[V:1] GABcd2e2- | 
[V:2] z2G4E2 | 
[V:3] z8 | 
[V:4] G,4z2C2- | 
[V:1] e2d2g4 | 
[V:2] F4E2G2 | 
[V:3] z8 | 
[V:4] C2B,2E4 | 
[V:1] f4ede2- | 
[V:2] A4G2E2 | 
[V:3] z8 | 
[V:4] D4z2G,2 | 
[V:1] e2d2e2dc | 
[V:2] F4E4 | 
[V:3] z8 | 
[V:4] A,2B,2C2B,A, | 
[V:1] B2e3de2 | 
[V:2] z2A2G2E2 | 
[V:3] z8 | 
[V:4] G,2A,2E,4 | 
[V:1] d2B2c2d2 | 
[V:2] F2G2C2FE | 
[V:3] z8 | 
[V:4] z8 | 
[V:1] G2g3fd2 | 
[V:2] DCC4B,2 | 
[V:3] z8 | 
[V:4] z2E,2F,2G,2 | 
[V:1] e2c2d2e2- | 
[V:2] C2A4G2 | 
[V:3] z8 | 
[V:4] C,2F,4E,2 | 
[V:1] edc4B2 | 
[V:2] FEDCD4 | 
[V:3] z8 | 
[V:4] A,4G,4 | 
[V:1] c8 |]  
[V:2] C8 |]  
[V:3] z8 |]  
[V:4] C,8 |]  



